X:1
T:Title
%%score { ( 1 3 ) | ( 2 4 ) }
L:1/8
M:4/4
K:G
V:1 treble nm="Grand Piano"
V:3 treble 
V:2 bass 
V:4 bass 
V:1
 z4 z2[Q:1/4=108] [B,G]2 | [DB]2 [DB]2 [DB]2 [DB]2 | [CA]2 [B,G]4 [DB]2 | B2 A2 E2 F2 | %4
 [B,G]6 [DB]2 | A2 A2 A2 B2 | B2 A4 A2 | B2 [DG]2 [CE]2 [^CA]2 | A6 B2 | d2 B2 A2 G2 | %10
 A2 B2 c2 A2 | [DB]2 [G,DG]2 [G,CE]2 [CEA]2 |[M:3/4] [B,G]2 F4 |[M:1/4] [F,D]2 | %14
[M:4/4] [G,DG]2 [B,DG]2 [DGB]2 [DA]2 | [CDA]2 [B,DG]4 [DFA]2 | B2 B2 d2 B2 | [GB]2 [FA]4 B2 | %18
 d2 B2 [CFA]2 [B,G]2 | [CFA]2 [CEG]2 [EAc]4 | [DGB]2 [CFA]2 [B,G]2 [A,DF]2 |[M:3/4] [B,DG]6 |] %22
V:2
 z4 z2 [G,,G,]2 | [G,,G,]2 [G,,G,]2 [G,,G,]2 [G,,G,]2 | [G,,G,]2 [G,,G,]4 [G,,G,]2 | %3
 [D,G,D]2 [D,F,D]2 [D,A,C]2 [D,A,C]2 | [G,,G,]6 [G,,G,]2 | [D,F,D]2 [D,F,D]2 [D,F,D]2 [D,G,D]2 | %6
 [D,G,D]2 [D,F,D]4 [D,F,D]2 | [G,D]2 [B,,G,]2 [C,G,]2 [A,,G,]2 | [D,F,D]6 [G,D]2 | %9
 [G,B,D]2 [G,D]2 [G,C]2 [G,B,]2 | [D,F,D]2 [D,G,D]2 [D,A,D]2 [D,F,D]2 | [G,,G,]2 B,,2 C,2 A,,2 | %12
[M:3/4] z2 A,4 |[M:1/4] D,2 |[M:4/4] B,,2 G,,2 D,2 D,2 | G,,2 G,,4 D,2 | %16
 [G,DG]2 [G,DG]2 [G,B,G]2 [G,DG]2 | [D,D]2 [D,D]4[K:treble] [G,DG]2 | %18
 [G,B,G]2 [G,DG]2[K:bass] D,2 E,2 | C,2 C,2 A,,4 | D,2 D,2 D,2 D,2 |[M:3/4] G,,6 |] %22
V:3
 x8 | x8 | x8 | x8 | x8 | x8 | x8 | x8 | x8 | x8 | x8 | x8 |[M:3/4] D6 |[M:1/4] x2 |[M:4/4] x8 | %15
 x8 | x8 | x8 | x8 | x8 | x8 |[M:3/4] x6 |] %22
V:4
 x8 | x8 | x8 | x8 | x8 | x8 | x8 | x8 | x8 | x8 | x8 | x8 |[M:3/4] D,6 |[M:1/4] x2 |[M:4/4] x8 | %15
 x8 | x8 | x6[K:treble] x2 | x4[K:bass] x4 | x8 | x8 |[M:3/4] x6 |] %22

